icon/fa/border-all.svg

<svg xmlns="http://www.w3.org/2000/svg" viewBox="0 0 448 512"><!--! Font Awesome Free 6.1.2 by @fontawesome - https://fontawesome.com License - https://fontawesome.com/license/free (Icons: CC BY 4.0, Fonts: SIL OFL 1.1, Code: MIT License) Copyright 2022 Fonticons, Inc.--><path d="M384 32c35.3 0 64 28.65 64 64v320c0 35.3-28.7 64-64 64H64c-35.35 0-64-28.7-64-64V96c0-35.35 28.65-64 64-64h320zm0 64H256v128h128V96zm0 192H256v128h128V288zm-192-64V96H64v128h128zM64 416h128V288H64v128z"/></svg>

<svg xmlns="http://www.w3.org/2000/svg" viewBox="0 0 448 512" height="1em" width="1em">
<!--! Font Awesome Free 6.1.2 by @fontawesome - https://fontawesome.com License - https://fontawesome.com/license/free (Icons: CC BY 4.0, Fonts: SIL OFL 1.1, Code: MIT License) Copyright 2022 Fonticons, Inc.-->
  <path d="M384 32C419.3 32 448 60.65 448 96V416C448 451.3 419.3 480 384 480H64C28.65 480 0 451.3 0 416V96C0 60.65 28.65 32 64 32H384zM384 96H256V224H384V96zM384 288H256V416H384V288zM192 224V96H64V224H192zM64 416H192V288H64V416z"/>
</svg>
